X:187
T: Die beiden Waisenkinder
N: Q0118
O: Mitteleuropa, Deutschland (BRD) , Rheinland, Viersen
R: Ballade, Waise, boese Stiefmutter, Klage am Grab, Geist
M: 6/8
L: 1/8
K: F
F | AAAA2A | BBz3
B | BBdc2B | A2z
c3 | AAAABc | d3dc
B | AAcc2B | A3
c3 | AAAABc | d3dc
B | AAcc2B | A3z2

